assets/img/braze_icons/arrow-circle-down-left.svg

<svg fill="none" height="24" viewBox="0 0 24 24" width="24" xmlns="http://www.w3.org/2000/svg"><path clip-rule="evenodd" d="m19.7782 4.22183c-4.2958-4.2957719-11.26061-4.2957719-15.55637 0-4.2957719 4.29576-4.2957719 11.26057 0 15.55637 4.29576 4.2957 11.26057 4.2957 15.55637 0 4.2957-4.2958 4.2957-11.26061 0-15.55637zm-4.2427 4.24264c.3906.39052.3906 1.02369 0 1.41421l-3.9497 3.94972h3.2426c.5523 0 1 .4477 1 1s-.4477 1-1 1h-5.65683c-.55228 0-1-.4477-1-1v-5.65683c0-.55228.44772-1 1-1 .55229 0 1.00003.44772 1.00003 1v3.24263l3.9497-3.94973c.3905-.39053 1.0237-.39053 1.4142 0z" fill="#801ed7" fill-rule="evenodd"/></svg>

<svg width="24" height="24" viewBox="0 0 24 24" fill="none" xmlns="http://www.w3.org/2000/svg">
<path fill-rule="evenodd" clip-rule="evenodd" d="M19.7782 4.22183C15.4824 -0.0739419 8.51759 -0.0739419 4.22183 4.22183C-0.0739419 8.51759 -0.0739419 15.4824 4.22183 19.7782C8.51759 24.0739 15.4824 24.0739 19.7782 19.7782C24.0739 15.4824 24.0739 8.51759 19.7782 4.22183ZM15.5355 8.46447C15.9261 8.85499 15.9261 9.48816 15.5355 9.87868L11.5858 13.8284H14.8284C15.3807 13.8284 15.8284 14.2761 15.8284 14.8284C15.8284 15.3807 15.3807 15.8284 14.8284 15.8284H9.17157C8.61929 15.8284 8.17157 15.3807 8.17157 14.8284V9.17157C8.17157 8.61929 8.61929 8.17157 9.17157 8.17157C9.72386 8.17157 10.1716 8.61929 10.1716 9.17157V12.4142L14.1213 8.46447C14.5118 8.07394 15.145 8.07394 15.5355 8.46447Z" fill="#801ED7"/>
</svg>
